src/assets/img/icons/duotone-icons/Media/Volume-up.svg

<?xml version="1.0" encoding="UTF-8"?>
<svg width="24px" height="24px" viewBox="0 0 24 24" version="1.1" xmlns="http://www.w3.org/2000/svg" xmlns:xlink="http://www.w3.org/1999/xlink">
    <!-- Generator: Sketch 52.2 (67145) - http://www.bohemiancoding.com/sketch -->
    <title>Stockholm-icons / Media / Volume-up</title>
    <desc>Created with Sketch.</desc>
    <g id="Stockholm-icons-/-Media-/-Volume-up" stroke="none" stroke-width="1" fill="none" fill-rule="evenodd">
        <rect id="bound" x="0" y="0" width="24" height="24"></rect>
        <path d="M18,11 L18,9 C18,8.44771525 18.4477153,8 19,8 C19.5522847,8 20,8.44771525 20,9 L20,11 L22,11 C22.5522847,11 23,11.4477153 23,12 C23,12.5522847 22.5522847,13 22,13 L20,13 L20,15 C20,15.5522847 19.5522847,16 19,16 C18.4477153,16 18,15.5522847 18,15 L18,13 L16,13 C15.4477153,13 15,12.5522847 15,12 C15,11.4477153 15.4477153,11 16,11 L18,11 Z" id="Combined-Shape" fill="#335EEA" opacity="0.3"></path>
        <path d="M7,16 L3.60776773,15.3215535 C2.67291934,15.1345839 2,14.3137542 2,13.3603922 L2,10.6396078 C2,9.68624577 2.67291934,8.86541613 3.60776773,8.67844645 L7,8 L10.2928932,4.70710678 C10.6834175,4.31658249 11.3165825,4.31658249 11.7071068,4.70710678 C11.8946432,4.89464316 12,5.14899707 12,5.41421356 L12,18.5857864 C12,19.1380712 11.5522847,19.5857864 11,19.5857864 C10.7347835,19.5857864 10.4804296,19.4804296 10.2928932,19.2928932 L7,16 Z" id="Combined-Shape" fill="#335EEA"></path>
    </g>
</svg>

<svg width="24" height="24" viewBox="0 0 24 24" xmlns="http://www.w3.org/2000/svg"><g fill="none" fill-rule="evenodd"><path d="M0 0h24v24H0z"/><path d="M18 11V9a1 1 0 012 0v2h2a1 1 0 010 2h-2v2a1 1 0 01-2 0v-2h-2a1 1 0 010-2h2z" fill="#335EEA" opacity=".3"/><path d="M7 16l-3.392-.678A2 2 0 012 13.36v-2.72a2 2 0 011.608-1.962L7 8l3.293-3.293A1 1 0 0112 5.414v13.172a1 1 0 01-1.707.707L7 16z" fill="#335EEA"/></g></svg>
